X: 193
T: le Renard
B: 204 Favourite Country Dances
N: Published by Straight & Skillern, London ca.1775
F: http://imslp.org/wiki/204_Favourite_Country_Dances_(Various) p.97 #193
Z: 2014 John Chambers <jc:trillian.mit.edu>
M: C
L: 1/8
K: A
% - - - - - - - - - - - - - - - - - - - - - - - - -
|:\
AABB c2B2 | dcBA B/A/G/F/ EE |\
AABB c2B2 | dc BA/G/ A2HA,2 :|
|:\
eefd e2c2 | dcBA B/A/G/F/ EE |\
eefd e2c2 | dedc "D.C."[B4E4] |]
% - - - - - - - - - - - - - - - - - - - - - - - - -
%%begintext align
%% Cast off two Cu. .| lead up to the Top
%% and cast off :| Hands 6 round at Bottom
%% .|.. Right and left at top :|:
%%endtext

%%sep 1 1 500
%%sep 1 1 500
